svgs/sharp-light/repeat.svg

<svg xmlns="http://www.w3.org/2000/svg" viewBox="0 0 512 512"><!--! Font Awesome Pro 6.6.0 by @fontawesome - https://fontawesome.com License - https://fontawesome.com/license (Commercial License) Copyright 2024 Fonticons, Inc. --><path d="M320 32l0-32 32 0 73.4 73.4L448 96l-22.6 22.6L352 192l-32 0 0-32 0-48L32 112l0 144 0 16L0 272l0-16L0 96 0 80l16 0 304 0 0-48zm32 114.7L402.7 96 352 45.3 352 80l0 32 0 34.7zM512 256l0 160 0 16-16 0-304 0 0 48 0 32-32 0L86.6 438.6 64 416l22.6-22.6L160 320l32 0 0 32 0 48 288 0 0-144 0-16 32 0 0 16zM109.3 416L160 466.7l0-101.5L109.3 416z"/></svg>

<svg xmlns="http://www.w3.org/2000/svg" viewBox="0 0 512 512"><!--! Font Awesome Pro 6.4.0 by @fontawesome - https://fontawesome.com License - https://fontawesome.com/license (Commercial License) Copyright 2023 Fonticons, Inc. --><path d="M320 32V0h32l73.4 73.4L448 96l-22.6 22.6L352 192H320V160 112H32V256v16H0V256 96 80H16 320V32zm32 114.7L402.7 96 352 45.3V80v32 34.7zM512 256l0 160v16H496l-304 0v48 32H160L86.6 438.6 64 416l22.6-22.6L160 320h32v32 48l288 0 0-144V240l32 0v16zM109.3 416L160 466.7V365.3L109.3 416z"/></svg>
